X:1
T:Title
%%score { ( 1 3 ) | 2 }
L:1/8
M:6/8
K:G
V:1 treble nm="Grand Piano"
V:3 treble 
V:2 bass 
V:1
 z3 z2[Q:1/4=75] [DB]/[CA]/ | [B,G][A,F][B,G] AGE | [B,D]3 [G,B,]2 [B,D] | [B,G][B,G][B,G] [DG]AB | %4
[M:5/8] A-A- A3 |[M:1/8] B/c/ |[M:3/4] dB AG FG | [EA]3 E2 E | DG BA EF | %9
[M:5/8] [B,G]-[B,G]- [B,G]3 |[M:1/8] [GB]/[Ac]/ |[M:3/4] de dB AB/d/ | [Ed][Ec] [CE][EA] [EG][CE] | %13
 [B,D][DG] [DG][DG] AB | Ad ^c/-[Gc]/ [Fd]2 B/=c/ | d2 dB AB | [Ec]2 [CE] [EG]2 [DF]/E/ | %17
 D2 GB cB | A2 EF [B,G]2 |] %19
V:2
 z3 z2 [G,,G,]/[G,,D,]/ | [G,,D,][G,,D,][G,,D,] [C,E,C][C,E,C][C,G,C] | [G,,G,]3 [G,,D,]2 [G,,G,] | %3
 [G,,D,][G,,D,][G,,D,] [B,,G,][D,F,D][G,D] |[M:5/8] [D,F,D]-[D,F,D]- [D,F,D]3 | %5
[M:1/8] [G,D]/[G,A,D]/ |[M:3/4] [G,B,D][G,D] [G,CD][G,B,D] [G,A,D][G,B,D] | %7
 [C,C]3 [C,G,C]2 [C,G,C] | [D,G,B,][D,B,D] [D,G,D][D,F,C] [D,G,C][D,A,C] | %9
[M:5/8] [G,,G,]-[G,,G,]- [G,,G,]3 |[M:1/8][K:treble] [G,D]/[G,D]/ | %11
[M:3/4] [G,B,G][G,CG] [G,B,G][G,DG] [G,DF][G,DG]/[G,B,=F]/ | [C,C][C,G,] [C,G,][C,C] [C,C][C,G,] | %13
 [G,,G,][B,,G,] [B,,G,][B,,G,] [D,F,D][G,D] | %14
 [F,A,D][A,F] [A,,A,] [D,A,]2[K:treble] [G,D]/[G,A,D]/ | [G,B,G]2 [G,B,G][G,DG] [G,DF][G,=F] | %16
 [C,G,]2 [C,G,] [C,C]2 [C,G,]/[C,G,C]/ | [D,G,B,]2 [D,B,D][D,G,D] [D,A,D][D,G,D] | %18
 [D,F,C]2 [D,G,C][D,A,C] [G,,G,]2 |] %19
V:3
 x6 | x6 | x6 | x6 |[M:5/8] x5 |[M:1/8] x |[M:3/4] x6 | x6 | x6 |[M:5/8] x5 |[M:1/8] x | %11
[M:3/4] x6 | x6 | x6 | z2 .E2 z2 | x6 | x6 | x6 | x6 |] %19

